X:1
T:Title
%%score { 1 | 2 } { 3 | 4 }
L:1/8
Q:1/4=105
M:4/4
K:G
V:1 treble nm="Grand Piano, Unnamed-000"
V:2 treble 
V:3 treble nm="Choir Pad, Grostette, LM"
V:4 bass 
V:1
 B2 BB A2 G2 | F2 E2 D4 | ^D2 DD D3 D | EFGA B4 | d2 dd d3 c | B2 A2 G4 | e2 ee A2 Bc | B2 A2 G4- | %8
w: By~Henry~Wellington~Greatorex,~1851 * * * *||||||||
 G4 z4 |] %9
w: |
V:2
 G2 GG F2 E2 | D2 C2[K:bass] B,4 | B,2 B,B, B,3 B, | z8 | B,2 B,B, B,3 C | D2 ^D2 E4 | %6
 E2 EE F2 GE | D2 C2 B,4- | B,4 z4 |] %9
V:3
 D2 DD C2 B,2 | B,2 G,2 G,4 | F,2 F,F, F,3 F, | E,F,G,A, B,4 | B,2 B,B, B,3 A, | G,2 F,2 E,4 | %6
 G,2 G,C C2 B,A, | G,D,E,F, G,4- | G,4 z4 |] %9
V:4
 G,2 G,G, D,2 E,2 | B,,2 C,2 G,,4 | B,,2 B,,B,, B,,3 B,, | z8 | G,,2 G,,G,, G,,3 A,, | %5
 B,,2 B,,2 C,4 | C,2 C,C, D,2 G,C, | .D,2 D,2 G,,4- | G,,4 z4 |] %9

